school/img/country/MK.svg

<svg width="13" height="12" viewBox="0 0 13 12" fill="none" xmlns="http://www.w3.org/2000/svg">
<rect width="13" height="12" rx="2" fill="white"/>
<mask id="mask0" mask-type="alpha" maskUnits="userSpaceOnUse" x="0" y="0" width="13" height="12">
<rect width="13" height="12" rx="2" fill="white"/>
</mask>
<g mask="url(#mask0)">
<rect width="13" height="12" fill="#E81B26"/>
<path fill-rule="evenodd" clip-rule="evenodd" d="M6.50001 8C7.35474 8 8.04763 7.10457 8.04763 6C8.04763 4.89543 7.35474 4 6.50001 4C5.64529 4 4.95239 4.89543 4.95239 6C4.95239 7.10457 5.64529 8 6.50001 8Z" fill="#FFE94F"/>
<path fill-rule="evenodd" clip-rule="evenodd" d="M5.05978 8.09192C4.94043 7.95461 4.83292 7.8005 4.73946 7.63245L-0.331909 12.3348L0.910762 14.1184L5.05978 8.09192ZM4.35482 6.39605C4.34065 6.26667 4.33332 6.13444 4.33332 6C4.33332 5.86557 4.34065 5.73335 4.35482 5.60398L6.88434e-06 4.80001V7.20001L4.35482 6.39605ZM6.07502 8.74616L5.57144 12H7.42858L6.92501 8.74615C6.78758 8.78148 6.64545 8.8 6.49998 8.8C6.35454 8.8 6.21243 8.78148 6.07502 8.74616ZM7.94022 8.09189L12.0893 14.1184L13.3319 12.3348L8.26053 7.63242C8.16707 7.80046 8.05956 7.95458 7.94022 8.09189ZM8.64514 6.39604L13 7.20001V4.80001L8.64515 5.60398C8.65932 5.73336 8.66665 5.86557 8.66665 6C8.66665 6.13444 8.65932 6.26666 8.64514 6.39604ZM8.26053 4.36758L13.3319 -0.33483L12.0892 -2.11838L7.94022 3.90811C8.05956 4.04543 8.16707 4.19954 8.26053 4.36758ZM6.92501 3.25386L7.42858 1.26362e-05H5.57144L6.075 3.25385C6.21242 3.21853 6.35453 3.2 6.49998 3.2C6.64545 3.2 6.78758 3.21853 6.92501 3.25386Z" fill="#FFE94F"/>
</g>
</svg>

<svg width="13" height="12" fill="none" xmlns="http://www.w3.org/2000/svg"><rect width="13" height="12" rx="2" fill="#fff"/><mask id="a" maskUnits="userSpaceOnUse" x="0" y="0" width="13" height="12"><rect width="13" height="12" rx="2" fill="#fff"/></mask><g mask="url(#a)"><path fill="#E81B26" d="M0 0h13v12H0z"/><path fill-rule="evenodd" clip-rule="evenodd" d="M6.5 8c.855 0 1.548-.895 1.548-2S7.355 4 6.5 4c-.855 0-1.548.895-1.548 2S5.645 8 6.5 8zm-1.44.092a2.7 2.7 0 01-.32-.46l-5.072 4.703 1.243 1.783L5.06 8.092zm-.705-1.696a3.638 3.638 0 010-.792L0 4.8v2.4l4.355-.804zm1.72 2.35L5.571 12H7.43l-.504-3.254a1.703 1.703 0 01-.85 0zm1.865-.654l4.15 6.026 1.242-1.783L8.26 7.632a2.702 2.702 0 01-.32.46zm.705-1.696L13 7.2V4.8l-4.355.804a3.638 3.638 0 010 .792zm-.384-2.028l5.07-4.703-1.242-1.783L7.94 3.908c.12.137.227.292.32.46zM6.925 3.254L7.429 0H5.57l.504 3.254a1.704 1.704 0 01.85 0z" fill="#FFE94F"/></g></svg>
